svg/500/sharp/health_and_beauty.svg

<svg xmlns="http://www.w3.org/2000/svg" width="48" height="48" viewBox="0 -960 960 960"><path d="M189.826-74.022 34.5-513.913 240.26-638.5v-246.718h130.217V-638.5L576-513.913 420.674-74.022H189.826Zm459.739 0v-62.869H823.37v-102.565H649.565v-62.87H823.37V-405.37H649.565V-468H823.37v-103.043H649.565v-62.631H823.37v-102.804H649.565v-62.87H925.5v725.326H649.565Zm-409.782-68.13h131.195l121.174-341.891-141.978-84.805h-89.848l-141.978 84.805 121.435 341.891ZM305.37-356Z"/></svg>

<svg xmlns="http://www.w3.org/2000/svg" width="48" height="48" viewBox="0 -960 960 960"><path d="M189.83-74.02 34.5-513.91 240.26-638.5v-246.72h130.22v246.72L576-513.91 420.67-74.02H189.83Zm459.74 0v-62.87h173.8v-102.57h-173.8v-62.87h173.8v-103.04h-173.8V-468h173.8v-103.04h-173.8v-62.63h173.8v-102.81h-173.8v-62.87H925.5v725.33H649.57Zm-409.79-68.13h131.2l121.17-341.89-141.98-84.81h-89.84l-141.98 84.81 121.43 341.89ZM305.37-356Z"/></svg>
